assets/tech-logos/Laravel.svg

<svg height="133" viewBox="0 0 128 128" width="128" xmlns="http://www.w3.org/2000/svg"><path d="m26.027344.136719c-.203125.078125-5.941406 3.347656-12.746094 7.257812-8.246094 4.742188-12.480469 7.238281-12.707031 7.472657-.179688.203124-.382813.554687-.445313.777343-.1718748.574219-.1835935 84.703125-.011718 85.308594.0625.234375.265624.578125.449218.769531.445313.46875 49.671875 28.773438 50.269532 28.910156.277343.066407.589843.054688.898437-.03125.671875-.167968 49.769531-28.410156 50.207031-28.871093.179688-.199219.382813-.542969.449219-.777344.085937-.277344.117187-4.675781.117187-13.9375v-13.535156l11.96875-6.875c11.285157-6.488281 11.976563-6.894531 12.265626-7.339844l.296874-.480469v-14.578125c0-15.871093.03125-14.976562-.597656-15.550781-.167968-.148438-5.917968-3.503906-12.789062-7.460938l-12.480469-7.179687h-1.386719l-12.210937 7.011719c-6.722657 3.867187-12.4375 7.171875-12.714844 7.351562-.277344.183594-.609375.523438-.746094.769532l-.246093.425781-.054688 13.734375-.050781 13.738281-10.082031 5.808594c-5.546876 3.1875-10.164063 5.828125-10.261719 5.851562-.179688.050781-.191407-1.257812-.191407-26.503906v-26.570313l-.265624-.457031c-.332032-.554687 1.160156.332031-13.824219-8.28125-12.566407-7.226562-12.265625-7.074219-13.109375-6.757812zm11.550781 10.519531c5.257813 3.015625 9.558594 5.511719 9.558594 5.542969s-4.609375 2.695312-10.242188 5.933593l-10.25 5.882813-10.230469-5.882813c-5.621093-3.238281-10.226562-5.902343-10.226562-5.933593s4.597656-2.695313 10.21875-5.925781l10.207031-5.871094.703125.382812c.394532.214844 5.015625 2.855469 10.261719 5.871094zm73.152344 13.535156c5.535156 3.1875 10.113281 5.820313 10.15625 5.863282.117187.105468-20.183594 11.773437-20.460938 11.761718-.277343-.007812-20.328125-11.570312-20.320312-11.710937.011719-.160157 20.183593-11.765625 20.386719-11.734375.09375.023437 4.703124 2.644531 10.238281 5.820312zm-95.902344 1.683594 9.757813 5.617188.054687 27.8125.050781 27.816406.238282.375c.125.199218.359374.46875.53125.59375.160156.117187 5.589843 3.210937 12.0625 6.863281l11.757812 6.640625v11.765625c0 6.457031-.042969 11.753906-.097656 11.753906-.042969 0-10.207032-5.816406-22.582032-12.9375l-22.496093-12.9375-.03125-39.773437-.019531-39.761719.5.277344c.289062.152343 4.90625 2.804687 10.273437 5.894531zm34.453125 19.578125v25.628906l-.394531.257813c-.535157.339844-20.074219 11.570312-20.140625 11.570312-.03125 0-.054688-11.570312-.054688-25.714844l.011719-25.703124 10.207031-5.871094c5.613282-3.230469 10.242188-5.851563 10.296875-5.832032.039063.023438.074219 11.574219.074219 25.664063zm38.941406-5.894531 10.230469 5.882812v11.660156c0 11.0625-.011719 11.65625-.179687 11.59375-.109376-.042968-4.738282-2.695312-10.292969-5.894531l-10.113281-5.808593v-11.65625c0-6.417969.03125-11.660157.0625-11.660157.042968 0 4.671874 2.644531 10.292968 5.882813zm34.871094 5.703125c0 6.382812-.042969 11.648437-.085938 11.699219-.074218.117187-20.308593 11.777343-20.4375 11.777343-.03125 0-.0625-5.242187-.0625-11.660156v-11.65625l10.207032-5.875c5.621094-3.226563 10.25-5.871094 10.292968-5.871094.054688 0 .085938 5.210938.085938 11.585938zm-36.863281 21.207031c8.605469 4.953125 10.089843 5.839844 9.941406 5.957031-.097656.0625-3.359375 1.9375-7.242187 4.15625-3.882813 2.214844-13.941407 7.949219-22.359376 12.746094l-15.296874 8.726563-.488282-.265626c-2.921875-1.597656-19.875-11.242187-19.875-11.316406-.007812-.160156 44.855469-25.941406 45.035156-25.875.085938.03125 4.714844 2.671875 10.285157 5.871094zm12.203125 21.089844-.035156 11.679687-22.484376 12.9375c-12.371093 7.121094-22.539062 12.9375-22.589843 12.9375-.054688 0-.097657-4.753906-.097657-11.753906v-11.765625l22.539063-12.851562c12.382813-7.066407 22.558594-12.851563 22.613281-12.863282.042969 0 .0625 5.253906.054688 11.679688zm0 0" fill="#f05340"/></svg>

<?xml version="1.0" encoding="UTF-8"?>
<svg xmlns="http://www.w3.org/2000/svg" xmlns:xlink="http://www.w3.org/1999/xlink" width="128px" height="133px" viewBox="0 0 128 128" version="1.1">
<g id="surface1">
<path style=" stroke:none;fill-rule:nonzero;fill:rgb(94.117647%,32.54902%,25.098039%);fill-opacity:1;" d="M 26.027344 0.136719 C 25.824219 0.214844 20.085938 3.484375 13.28125 7.394531 C 5.035156 12.136719 0.800781 14.632812 0.574219 14.867188 C 0.394531 15.070312 0.191406 15.421875 0.128906 15.644531 C -0.0429688 16.21875 -0.0546875 100.347656 0.117188 100.953125 C 0.179688 101.1875 0.382812 101.53125 0.566406 101.722656 C 1.011719 102.191406 50.238281 130.496094 50.835938 130.632812 C 51.113281 130.699219 51.425781 130.6875 51.734375 130.601562 C 52.40625 130.433594 101.503906 102.191406 101.941406 101.730469 C 102.121094 101.53125 102.324219 101.1875 102.390625 100.953125 C 102.476562 100.675781 102.507812 96.277344 102.507812 87.015625 L 102.507812 73.480469 L 114.476562 66.605469 C 125.761719 60.117188 126.453125 59.710938 126.742188 59.265625 L 127.039062 58.785156 L 127.039062 44.207031 C 127.039062 28.335938 127.070312 29.230469 126.441406 28.65625 C 126.273438 28.507812 120.523438 25.152344 113.652344 21.195312 L 101.171875 14.015625 L 99.785156 14.015625 L 87.574219 21.027344 C 80.851562 24.894531 75.136719 28.199219 74.859375 28.378906 C 74.582031 28.5625 74.25 28.902344 74.113281 29.148438 L 73.867188 29.574219 L 73.8125 43.308594 L 73.761719 57.046875 L 63.679688 62.855469 C 58.132812 66.042969 53.515625 68.683594 53.417969 68.707031 C 53.238281 68.757812 53.226562 67.449219 53.226562 42.203125 L 53.226562 15.632812 L 52.960938 15.175781 C 52.628906 14.621094 54.121094 15.507812 39.136719 6.894531 C 26.570312 -0.332031 26.871094 -0.179688 26.027344 0.136719 Z M 37.578125 10.65625 C 42.835938 13.671875 47.136719 16.167969 47.136719 16.199219 C 47.136719 16.230469 42.527344 18.894531 36.894531 22.132812 L 26.644531 28.015625 L 16.414062 22.132812 C 10.792969 18.894531 6.1875 16.230469 6.1875 16.199219 C 6.1875 16.167969 10.785156 13.503906 16.40625 10.273438 L 26.613281 4.402344 L 27.316406 4.785156 C 27.710938 5 32.332031 7.640625 37.578125 10.65625 Z M 110.730469 24.191406 C 116.265625 27.378906 120.84375 30.011719 120.886719 30.054688 C 121.003906 30.160156 100.703125 41.828125 100.425781 41.816406 C 100.148438 41.808594 80.097656 30.246094 80.105469 30.105469 C 80.117188 29.945312 100.289062 18.339844 100.492188 18.371094 C 100.585938 18.394531 105.195312 21.015625 110.730469 24.191406 Z M 14.828125 25.875 L 24.585938 31.492188 L 24.640625 59.304688 L 24.691406 87.121094 L 24.929688 87.496094 C 25.054688 87.695312 25.289062 87.964844 25.460938 88.089844 C 25.621094 88.207031 31.050781 91.300781 37.523438 94.953125 L 49.28125 101.59375 L 49.28125 113.359375 C 49.28125 119.816406 49.238281 125.113281 49.183594 125.113281 C 49.140625 125.113281 38.976562 119.296875 26.601562 112.175781 L 4.105469 99.238281 L 4.074219 59.464844 L 4.054688 19.703125 L 4.554688 19.980469 C 4.84375 20.132812 9.460938 22.785156 14.828125 25.875 Z M 49.28125 45.453125 L 49.28125 71.082031 L 48.886719 71.339844 C 48.351562 71.679688 28.8125 82.910156 28.746094 82.910156 C 28.714844 82.910156 28.691406 71.339844 28.691406 57.195312 L 28.703125 31.492188 L 38.910156 25.621094 C 44.523438 22.390625 49.152344 19.769531 49.207031 19.789062 C 49.246094 19.8125 49.28125 31.363281 49.28125 45.453125 Z M 88.222656 39.558594 L 98.453125 45.441406 L 98.453125 57.101562 C 98.453125 68.164062 98.441406 68.757812 98.273438 68.695312 C 98.164062 68.652344 93.535156 66 87.980469 62.800781 L 77.867188 56.992188 L 77.867188 45.335938 C 77.867188 38.917969 77.898438 33.675781 77.929688 33.675781 C 77.972656 33.675781 82.601562 36.320312 88.222656 39.558594 Z M 123.09375 45.261719 C 123.09375 51.644531 123.050781 56.910156 123.007812 56.960938 C 122.933594 57.078125 102.699219 68.738281 102.570312 68.738281 C 102.539062 68.738281 102.507812 63.496094 102.507812 57.078125 L 102.507812 45.421875 L 112.714844 39.546875 C 118.335938 36.320312 122.964844 33.675781 123.007812 33.675781 C 123.0625 33.675781 123.09375 38.886719 123.09375 45.261719 Z M 86.230469 66.46875 C 94.835938 71.421875 96.320312 72.308594 96.171875 72.425781 C 96.074219 72.488281 92.8125 74.363281 88.929688 76.582031 C 85.046875 78.796875 74.988281 84.53125 66.570312 89.328125 L 51.273438 98.054688 L 50.785156 97.789062 C 47.863281 96.191406 30.910156 86.546875 30.910156 86.472656 C 30.902344 86.3125 75.765625 60.53125 75.945312 60.597656 C 76.03125 60.628906 80.660156 63.269531 86.230469 66.46875 Z M 98.433594 87.558594 L 98.398438 99.238281 L 75.914062 112.175781 C 63.542969 119.296875 53.375 125.113281 53.324219 125.113281 C 53.269531 125.113281 53.226562 120.359375 53.226562 113.359375 L 53.226562 101.59375 L 75.765625 88.742188 C 88.148438 81.675781 98.324219 75.890625 98.378906 75.878906 C 98.421875 75.878906 98.441406 81.132812 98.433594 87.558594 Z M 98.433594 87.558594 "/>
</g>
</svg>
